packages/ffe-icons/icons/filled/sm/cloud_circle.svg

<svg xmlns="http://www.w3.org/2000/svg" height="20" viewBox="0 -960 960 960" width="20"><path d="M360-356.001h252q36.922 0 62.461-25.538 25.538-25.539 25.538-62.461 0-33.153-21.846-58.076-21.846-24.923-56.153-28.923h-20.001v-11.923q-4.923-47.385-39.731-78.231-34.807-30.846-84.191-30.846-45.308 0-77.769 27.962-32.461 27.962-40.922 69.038h-12.309q-36.922 4.077-61.999 32.962-25.077 28.884-25.077 65.652 0 41.588 29.181 70.986 29.181 29.398 70.818 29.398Zm120.343 240q-75.112 0-141.48-28.42-66.369-28.42-116.182-78.21-49.814-49.791-78.247-116.087t-28.433-141.673q0-75.378 28.42-141.246 28.42-65.869 78.21-115.682 49.791-49.814 116.087-78.247t141.673-28.433q75.378 0 141.246 28.42 65.869 28.42 115.682 78.21 49.814 49.791 78.247 115.853t28.433 141.173q0 75.112-28.42 141.48-28.42 66.369-78.21 116.182-49.791 49.814-115.853 78.247t-141.173 28.433Z"/></svg>

<svg xmlns="http://www.w3.org/2000/svg" height="20" viewBox="0 -960 960 960" width="20"><path d="M360-356h252q36.92 0 62.46-25.54T700-444q0-33.15-21.85-58.08Q656.31-527 622-531h-20v-11.92q-4.92-47.39-39.73-78.23Q527.46-652 478.08-652q-45.31 0-77.77 27.96-32.46 27.96-40.92 69.04h-12.31q-36.93 4.08-62 32.96Q260-493.15 260-456.38q0 41.58 29.18 70.98Q318.36-356 360-356Zm120.34 240q-75.11 0-141.48-28.42-66.37-28.42-116.18-78.21-49.81-49.79-78.25-116.09Q116-405.01 116-480.39q0-75.38 28.42-141.25t78.21-115.68q49.79-49.81 116.09-78.25Q405.01-844 480.39-844q75.38 0 141.25 28.42t115.68 78.21q49.81 49.79 78.25 115.85Q844-555.45 844-480.34q0 75.11-28.42 141.48-28.42 66.37-78.21 116.18-49.79 49.81-115.85 78.25Q555.45-116 480.34-116Z"/></svg>
